X: 17115
T: Heights Of Muingvuara, The
R: reel
M: 4/4
K: Gmajor
DEFD GFDC|B,G,B,C DE=FD|~G3B dBcA|GFDE =FDCF|
DE=FD G^FDC|B,G,B,C DE=FD|GFGB AGFA|1 DGGF G3F:|2 DGGF G2Bd||
|:gBdg GBdg|bgag e^def|gBBA (3Bcd BA|GBdB A2Bd|
gBdg GBdg|bgag e^def|gd~d2 ^cdBG|1 FGAF G2Bd:|2 FGAF G3F||
DEFD GFDC|B,G,B,C DEFD|~G3B dBGB|A=FDE FDCF|
DEFD GFDC|B,G,B,C DEFD|~G3B AGFA|1 DGGF ~G3F:|2 DGGF G2Bd||
|:gBdB GBdg|bgag egfa|gBBA (3BcB AB|GBdB ABcd|
gB~B2 GBdg|bgag egfa|gd~d2 ^cdBG|1 FGAF GABd:|2 FGAF G3F||

